X:1
T:The Southwind
M:3/4
L:1/8
R:Slow aire
K:G
d2|B3 A G2|B3 c d2|A3 B A2|A4 c2|\
B3 A G2|E3 D E2|G3 A G2|G4 :|
d2|g3 a ag|g3 f e2|d3 e d2|d4 c2|\
B3 A G2|B3 c d2|A3 B A2|A2 B2 d2|
g3 a ag|g3 f e2|d3 e d2|d4 c2|\
B3 A G2|A c3 F2|G3 A G2|G4|>|
